Numix-Light/16/status/indicator-keyboard-Nl-4.svg

<?xml version="1.0" encoding="UTF-8" standalone="no"?>
<svg
   xmlns:dc="http://purl.org/dc/elements/1.1/"
   xmlns:cc="http://creativecommons.org/ns#"
   xmlns:rdf="http://www.w3.org/1999/02/22-rdf-syntax-ns#"
   xmlns:svg="http://www.w3.org/2000/svg"
   xmlns="http://www.w3.org/2000/svg"
   xmlns:sodipodi="http://sodipodi.sourceforge.net/DTD/sodipodi-0.dtd"
   xmlns:inkscape="http://www.inkscape.org/namespaces/inkscape"
   viewBox="0 0 16 16"
   id="svg2"
   version="1.1"
   inkscape:version="0.91 r13725"
   sodipodi:docname="indicator-keyboard-Nl-4.svg">
  <metadata
     id="metadata14">
    <rdf:RDF>
      <cc:Work
         rdf:about="">
        <dc:format>image/svg+xml</dc:format>
        <dc:type
           rdf:resource="http://purl.org/dc/dcmitype/StillImage" />
      </cc:Work>
    </rdf:RDF>
  </metadata>
  <defs
     id="defs12" />
  <sodipodi:namedview
     pagecolor="#ffffff"
     bordercolor="#666666"
     borderopacity="1"
     objecttolerance="10"
     gridtolerance="10"
     guidetolerance="10"
     inkscape:pageopacity="0"
     inkscape:pageshadow="2"
     inkscape:window-width="640"
     inkscape:window-height="480"
     id="namedview10"
     showgrid="false"
     inkscape:zoom="14.75"
     inkscape:cx="8"
     inkscape:cy="8"
     inkscape:window-x="65"
     inkscape:window-y="24"
     inkscape:window-maximized="0"
     inkscape:current-layer="svg2" />
  <path
     style="fill:#353535;fill-opacity:1"
     d="M 1.5996094 0 C 0.71320937 2.9605947e-16 0 0.71320937 0 1.5996094 L 0 14.400391 C 2.9605947e-16 15.286791 0.71320937 16 1.5996094 16 L 14.400391 16 C 15.286791 16 16 15.286791 16 14.400391 L 16 1.5996094 C 16 0.71320937 15.286791 0 14.400391 0 L 1.5996094 0 z M 9.4804688 4.1113281 L 9.4804688 9.9628906 C 9.4804688 10.106891 9.4935781 10.2225 9.5175781 10.3125 C 9.5475781 10.3965 9.5885781 10.465531 9.6425781 10.519531 C 9.6965781 10.567531 9.7656094 10.604906 9.8496094 10.628906 C 9.9396094 10.652906 10.044063 10.673406 10.164062 10.691406 L 10.083984 11.177734 C 9.8859846 11.171734 9.7125 11.143703 9.5625 11.095703 C 9.4185 11.053703 9.2953594 10.988437 9.1933594 10.898438 C 9.0973594 10.802437 9.0207969 10.681109 8.9667969 10.537109 C 8.9187969 10.387109 8.8964844 10.202469 8.8964844 9.9804688 L 8.8964844 4.2207031 L 9.4804688 4.1113281 z M 2.5605469 4.859375 L 3.0449219 4.859375 C 3.3509219 5.201375 3.6793437 5.596875 4.0273438 6.046875 C 4.3813437 6.490875 4.7265 6.9460625 5.0625 7.4140625 C 5.3985 7.8760625 5.7100469 8.3294375 5.9980469 8.7734375 C 6.2920469 9.2174375 6.5307969 9.6055469 6.7167969 9.9355469 L 6.7167969 4.859375 L 7.3203125 4.859375 L 7.3203125 11.095703 L 6.8085938 11.095703 C 6.6945937 10.885703 6.5471875 10.639422 6.3671875 10.357422 C 6.1931875 10.075422 6.0010156 9.7750312 5.7910156 9.4570312 C 5.5810156 9.1330312 5.359 8.80475 5.125 8.46875 C 4.891 8.12675 4.655875 7.7965156 4.421875 7.4785156 C 4.193875 7.1545156 3.9700469 6.8503594 3.7480469 6.5683594 C 3.5320469 6.2863594 3.3361094 6.0438437 3.1621094 5.8398438 L 3.1621094 11.095703 L 2.5605469 11.095703 L 2.5605469 4.859375 z M 12.539062 8.8417969 L 12.9375 8.8417969 L 12.9375 11.486328 L 13.439453 11.486328 L 13.439453 11.796875 L 12.9375 11.796875 L 12.9375 12.896484 L 12.5625 12.896484 L 12.5625 11.796875 L 10.726562 11.796875 L 10.726562 11.5625 C 10.796763 11.3753 10.892778 11.163688 11.017578 10.929688 C 11.146278 10.695687 11.291272 10.456638 11.451172 10.210938 C 11.611072 9.9652374 11.785456 9.7261874 11.972656 9.4921875 C 12.159856 9.2542875 12.347963 9.0367969 12.539062 8.8417969 z M 12.5625 9.2695312 C 12.426 9.4099313 12.286884 9.5706063 12.146484 9.7539062 C 12.006084 9.9372063 11.872841 10.129225 11.744141 10.328125 C 11.619341 10.523125 11.501778 10.719069 11.392578 10.917969 C 11.283378 11.116869 11.191287 11.306928 11.117188 11.486328 L 12.5625 11.486328 L 12.5625 9.2695312 z "
     id="path4" />
</svg>

<svg xmlns="http://www.w3.org/2000/svg" viewBox="0 0 16 16">
 <path d="m 1.6 0 c -0.886 0 -1.6 0.713 -1.6 1.6 l 0 12.801 c 0 0.886 0.713 1.6 1.6 1.6 l 12.801 0 c 0.886 0 1.6 -0.713 1.6 -1.6 l 0 -12.801 c 0 -0.886 -0.713 -1.6 -1.6 -1.6 l -12.801 0 z m 7.881 4.111 l 0 5.852 c 0 0.144 0.013 0.26 0.037 0.35 c 0.03 0.084 0.071 0.153 0.125 0.207 c 0.054 0.048 0.123 0.085 0.207 0.109 c 0.09 0.024 0.194 0.044 0.314 0.063 l -0.08 0.486 c -0.198 -0.006 -0.371 -0.034 -0.521 -0.082 c -0.144 -0.042 -0.267 -0.107 -0.369 -0.197 c -0.096 -0.096 -0.173 -0.217 -0.227 -0.361 c -0.048 -0.15 -0.07 -0.335 -0.07 -0.557 l 0 -5.76 l 0.584 -0.109 z m -6.92 0.748 l 0.484 0 c 0.306 0.342 0.634 0.737 0.982 1.188 c 0.354 0.444 0.699 0.899 1.035 1.367 c 0.336 0.462 0.648 0.915 0.936 1.359 c 0.294 0.444 0.533 0.832 0.719 1.162 l 0 -5.076 l 0.604 0 l 0 6.236 l -0.512 0 c -0.114 -0.21 -0.261 -0.456 -0.441 -0.738 c -0.174 -0.282 -0.366 -0.582 -0.576 -0.9 c -0.21 -0.324 -0.432 -0.652 -0.666 -0.988 c -0.234 -0.342 -0.469 -0.672 -0.703 -0.99 c -0.228 -0.324 -0.452 -0.628 -0.674 -0.91 c -0.216 -0.282 -0.412 -0.525 -0.586 -0.729 l 0 5.256 l -0.602 0 l 0 -6.236 z m 9.979 3.982 l 0.398 0 l 0 2.645 l 0.502 0 l 0 0.311 l -0.502 0 l 0 1.1 l -0.375 0 l 0 -1.1 l -1.836 0 l 0 -0.234 c 0.07 -0.187 0.166 -0.399 0.291 -0.633 c 0.129 -0.234 0.274 -0.473 0.434 -0.719 c 0.16 -0.246 0.334 -0.485 0.521 -0.719 c 0.187 -0.238 0.375 -0.455 0.566 -0.65 z m 0.023 0.428 c -0.136 0.14 -0.276 0.301 -0.416 0.484 c -0.14 0.183 -0.274 0.375 -0.402 0.574 c -0.125 0.195 -0.242 0.391 -0.352 0.59 c -0.109 0.199 -0.201 0.389 -0.275 0.568 l 1.445 0 l 0 -2.217 z" style="fill:#353535;fill-opacity:1"/>
</svg>
